X:1
T:Title
%%score { ( 1 3 ) | 2 }
L:1/8
M:4/4
K:G
V:1 treble nm="Grand Piano"
V:3 treble 
V:2 bass 
V:1
 z4 z2[Q:1/4=121] D2 | B2 B2 _B2 =B2 | e2 d2 B2 [DG]2 | E4 G4 | D6 D2 | [Fc]2 [Fc]2 [DB]2 [DA]2 | %6
 [Dd]2 [DB]2 [DA]2 [DG]2 | [^CA]4 [CE]4 | A6 D2 | B2 B2 _B2 =B2 | e2 d2 B2 [DG]2 | [^DF]4 [DA]4 | %12
 [EG]6 [DG]2 | [EG]2 [^DF]2 [EG]2 [Dc]2 | B2 c2 d2 [Ge]2 | [DB]4 [CA]4 |[M:3/4] [B,G]6 | %17
[M:1/4] [GB]2 |[M:4/4] [Fd]4 [Ec]4 | E6 F2 | E4 D4 | G2 z2 z4 | E2 [EG]2 [Ec]2 [Ge]2 | %23
 [Gd]2 [DGB]2 [CDA]2 [B,DG]2 | [A,^CE]4 [A,=CF]4 |[M:3/4] [G,B,G]6 |] %26
V:2
 z4 z2 [G,B,]2 | [G,D]2 [G,D]2 [G,^C]2 [G,D]2 | [G,CG]2 [G,B,G]2[K:bass] [G,D]2 [B,,G,]2 | %3
 [C,G,C]4 [E,G,C]4 | [G,B,]6 [G,B,]2 | [D,A,]2 [D,A,]2 [D,G,]2 [C,F,]2 | %6
 [B,,G,]2 [G,,G,]2 [A,,F,]2 [B,,G,]2 | [A,,G,]4 [A,,G,]4 | [D,F,C]6 [D,F,]2 | %9
 [G,D]2 [G,D]2 [G,^C]2 [G,D]2 | [G,CG]2 [G,B,G]2[K:bass] [G,D]2 [B,,G,]2 | [B,,A,]4 [B,,B,]4 | %12
 [E,B,]6 [B,,G,]2 | [C,G,]2 [C,G,]2 [C,G,]2 [C,G,]2 | [G,D]2 [G,A,D]2 [G,B,G]2[K:bass] [C,C]2 | %15
 [D,G,]4 [D,F,]4 |[M:3/4] [G,,G,]6 |[M:1/4] [G,D]2 |[M:4/4] [D,C]4 [D,A,]4 | [D,F,C]6 [D,A,C]2 | %20
 [G,C]4 [G,B,]4 | [G,,G,]6 [B,,G,]2 | [C,G,C]2 [C,C]2 [C,G,]2 [C,C]2 | [G,B,]2 G,2 G,2 G,,2 | %24
 A,,4 D,4 |[M:3/4] G,,6 |] %26
V:3
 x8 | x8 | x8 | x8 | x8 | x8 | x8 | x8 | x8 | x8 | x8 | x8 | x8 | x8 | x8 | x8 |[M:3/4] x6 | %17
[M:1/4] x2 |[M:4/4] x8 | x8 | x8 | [DB]2- [D-FB-]2 [DEB]2 D2 | x8 | x8 | x8 |[M:3/4] x6 |] %26

